img/logo.svg

<svg width="142" height="39" viewBox="0 0 142 39" fill="none" xmlns="http://www.w3.org/2000/svg">
<g clip-path="url(#clip0_882_2279)">
<path d="M49.8711 14.9244V0.887695H52.7263L56.914 9.30198L61.1017 0.887695H63.9569V14.9244H61.4824V5.11423L57.6754 12.753H56.0765L52.2695 5.11423V14.9632H49.8711V14.9244Z" fill="#2A179C"/>
<path d="M67.9173 13.7223C66.8894 12.7142 66.3945 11.3958 66.3945 9.80601C66.3945 8.21622 66.8514 7.01418 67.9173 5.88969C68.9452 4.88152 70.2015 4.37744 71.6101 4.37744C73.0187 4.37744 74.3511 4.88152 75.3028 5.88969C76.3307 6.89785 76.8256 8.21622 76.8256 9.80601C76.8256 11.3958 76.3688 12.5978 75.3028 13.7223C74.275 14.7305 73.0187 15.2346 71.6101 15.2346C70.2015 15.2346 68.9833 14.7305 67.9173 13.7223ZM69.7447 7.82846C69.1736 8.33254 68.9071 9.0305 68.9071 9.92234C68.9071 10.8142 69.1736 11.5121 69.7447 12.0162C70.3157 12.5203 70.9629 12.8305 71.7243 12.8305C72.4857 12.8305 73.1329 12.5203 73.7039 12.0162C74.275 11.5121 74.4653 10.8142 74.4653 9.92234C74.4653 9.0305 74.1988 8.33254 73.7039 7.82846C73.1329 7.32438 72.4857 7.01418 71.7243 7.01418C70.8868 6.89785 70.3157 7.20805 69.7447 7.82846Z" fill="#2A179C"/>
<path d="M79.5273 14.9242V4.88135H82.2684L85.3901 10.3099L88.5118 4.88135H91.2528V14.9242H88.7783V8.52625L86.0373 13.5283H84.7048L81.9638 8.52625V14.963H79.5273V14.9242Z" fill="#2A179C"/>
<path d="M96.623 11.008C96.6991 11.6284 97.0037 12.0162 97.4605 12.4039C97.9173 12.7141 98.4122 12.908 99.0594 12.908C99.7066 12.908 100.011 12.7917 100.392 12.5978C100.773 12.4039 101.039 12.0937 101.344 11.706L103.628 12.5978C103.247 13.4121 102.6 14.1101 101.839 14.4978C101.077 15.0019 100.125 15.1958 99.1736 15.1958C97.7651 15.1958 96.5088 14.6917 95.557 13.6835C94.6053 12.6754 94.1484 11.357 94.1484 9.76719C94.1484 8.1774 94.6053 6.97536 95.557 5.85087C96.5088 4.76515 97.6509 4.33862 99.0594 4.33862C100.468 4.33862 101.724 4.8427 102.676 5.85087C103.628 6.85903 104.085 8.1774 104.085 9.65087C104.085 11.1243 104.085 10.3488 104.008 10.7366H96.5849V11.008H96.623ZM101.496 8.79781C101.42 8.1774 101.115 7.78964 100.658 7.40189C100.202 7.09168 99.6305 6.89781 99.0594 6.89781C98.4884 6.89781 97.9173 7.09168 97.4605 7.40189C97.0037 7.71209 96.6991 8.21617 96.623 8.79781H101.496Z" fill="#2A179C"/>
<path d="M106.633 14.9242V4.88135H109.107V8.68135H113.561V4.88135H116.036V14.9242H113.561V11.1242H109.107V14.9242H106.633Z" fill="#2A179C"/>
<path d="M126.774 4.88135V7.28543H123.842V14.9242H121.368V7.3242H118.398V4.92012H126.774V4.88135Z" fill="#2A179C"/>
<path d="M49.1863 33.1489C49.6432 32.5673 49.9477 31.7918 49.9477 30.9387V22.9897H58.856L58.7799 36.2897H56.3815V25.3938H52.3842V31.1326C52.3842 32.3734 51.9273 33.4204 50.9756 34.3897C50.0239 35.2428 48.8056 35.7469 47.2828 35.7469H46.7118L46.4453 34.0408H47.0925C47.9681 34.0408 48.7295 33.7306 49.1863 33.1489ZM60.493 34.002V38.5H58.0185V36.2897H48.9198V38.5H46.4453V34.002H60.493Z" fill="#2A179C"/>
<path d="M64.0697 35.2429C63.0418 34.2735 62.5469 33.0327 62.5469 31.5204C62.5469 30.0082 63.0037 28.8449 64.0697 27.798C65.0975 26.8286 66.3538 26.3633 67.7624 26.3633C69.171 26.3633 70.5034 26.8286 71.4552 27.798C72.4831 28.7674 72.978 30.0082 72.978 31.5204C72.978 33.0327 72.5211 34.1959 71.4552 35.2429C70.4273 36.2123 69.171 36.6776 67.7624 36.6776C66.3538 36.6776 65.0214 36.2123 64.0697 35.2429ZM65.7828 29.5041C65.2118 29.9694 64.9453 30.6674 64.9453 31.5204C64.9453 32.3735 65.2118 33.0714 65.7828 33.5368C66.3538 34.0021 67.001 34.3123 67.7624 34.3123C68.5238 34.3123 69.171 34.0408 69.742 33.5368C70.3131 33.0714 70.5034 32.3735 70.5034 31.5204C70.5034 30.6674 70.237 29.9694 69.742 29.5041C69.2852 29.0388 68.5238 28.7286 67.7624 28.7286C67.001 28.7286 66.3538 29.0388 65.7828 29.5041Z" fill="#2A179C"/>
<path d="M78.7106 29.592C78.2537 30.0573 77.9492 30.7553 77.9492 31.6083C77.9492 32.4614 78.2157 33.1593 78.7106 33.6246C79.1674 34.0899 79.8527 34.4002 80.6141 34.4002C81.3754 34.4002 81.6419 34.3226 82.1368 34.0124C82.5937 33.741 82.8982 33.3532 83.1647 32.8491L85.4489 33.8961C84.9921 34.7491 84.421 35.4471 83.5454 35.9899C82.7079 36.4553 81.7561 36.7655 80.6902 36.7655C79.6242 36.7655 78.0253 36.3002 77.0736 35.3308C76.0457 34.3614 75.5508 33.1206 75.5508 31.6083C75.5508 30.0961 76.0076 28.9328 77.0736 27.8859C78.1015 26.9165 79.2435 26.4512 80.6902 26.4512C82.1368 26.4512 82.6698 26.7226 83.5454 27.2267C84.383 27.692 85.0682 28.4675 85.4489 29.3206L83.1647 30.3675C82.9744 29.9022 82.5937 29.3981 82.1368 29.1267C81.68 28.8553 81.1851 28.6614 80.6141 28.6614C79.8527 28.8165 79.1674 29.1267 78.7106 29.592Z" fill="#2A179C"/>
<path d="M95.556 26.8286V29.1164H92.6246V36.4062H90.1501V29.1164H87.2188V26.8286H95.556Z" fill="#2A179C"/>
<path d="M103.435 32.3736L101.341 32.645C100.504 32.7226 100.123 33.0328 100.123 33.4981C100.123 33.9634 100.199 33.9634 100.504 34.1573C100.694 34.3511 101.075 34.3511 101.455 34.3511C102.027 34.3511 102.598 34.1573 102.978 33.8858C103.359 33.6144 103.549 33.1103 103.549 32.645H104.196C104.196 33.8083 103.93 34.6614 103.245 35.4369C102.598 36.2124 101.722 36.6001 100.77 36.6001C99.8185 36.6001 99.1713 36.3287 98.6764 35.8246C98.1053 35.243 97.8389 34.5838 97.8389 33.8083C97.8389 33.0328 98.1053 32.2573 98.6764 31.792C99.2474 31.3267 100.009 30.9389 100.961 30.8226L103.625 30.5511V30.4736C103.625 30.0858 103.435 29.8144 103.169 29.5042C102.902 29.2328 102.407 29.1165 101.95 29.1165C101.494 29.1165 101.189 29.194 100.808 29.5042C100.428 29.7756 100.237 29.9695 100.161 30.3573L97.8008 29.5818C98.0673 28.8063 98.5622 28.1471 99.3236 27.6818C100.085 27.2165 100.922 26.9062 101.798 26.9062C102.674 26.9062 103.892 27.294 104.729 27.9532C105.567 28.6124 105.948 29.5042 105.948 30.4348V36.6389H103.473V32.3736H103.435Z" fill="#2A179C"/>
<path d="M114.972 36.4062H108.805V26.8286H114.782C115.733 26.8286 116.495 27.1 117.142 27.6041C117.789 28.0694 118.094 28.7674 118.094 29.4266C118.094 30.0858 118.018 30.2021 117.713 30.5898C117.523 30.9776 117.142 31.1715 116.761 31.3653C117.218 31.5592 117.523 31.947 117.789 32.3347C118.056 32.7225 118.17 33.1878 118.17 33.7694C118.17 34.3511 117.903 35.1266 117.218 35.6694C116.799 36.096 115.924 36.4062 114.972 36.4062ZM114.591 28.9225H111.355V30.5511H114.782C115.048 30.5511 115.238 30.4735 115.429 30.3572C115.619 30.1633 115.695 30.0858 115.695 29.8919C115.695 29.698 115.619 29.4266 115.429 29.2327C115.162 29.0388 114.896 28.9225 114.591 28.9225ZM114.782 32.4511H111.355V34.1572H114.858C115.124 34.1572 115.429 34.0796 115.619 33.8858C115.81 33.6919 115.886 33.498 115.886 33.3041C115.886 33.1102 115.81 32.8388 115.619 32.7225C115.353 32.5674 115.086 32.4511 114.782 32.4511Z" fill="#2A179C"/>
<path d="M120.871 36.4062V26.8286H123.346V30.3572H123.802L126.848 26.8286H129.97L125.896 31.598L129.97 36.3674H126.848L123.802 32.9164H123.346V36.3674H120.871V36.4062Z" fill="#2A179C"/>
<path d="M142.002 36.4063H139.527V29.892L135.34 36.29H132.484V26.7124H134.959V32.9165L139.147 26.7124H142.002V36.4063Z" fill="#2A179C"/>
<path fill-rule="evenodd" clip-rule="evenodd" d="M29.1233 7.09174L19.4155 1.39174C17.4359 0.228471 14.9614 0.228471 12.9437 1.39174L3.23592 7.09174C1.21823 8.29378 0 10.4652 0 12.8305V24.2693C0 26.5958 1.21823 28.806 3.23592 30.0081L12.9437 35.7081C13.8574 36.2509 14.9995 36.5611 16.1796 36.5611C17.3598 36.5611 18.5019 36.2509 19.4155 35.7081L29.1233 30.0081C31.1029 28.8448 32.3592 26.6346 32.3592 24.2693V12.8305C32.3592 10.4652 31.141 8.29378 29.1233 7.09174ZM16.1796 3.79582C16.7126 3.79582 17.3217 3.95092 17.8166 4.22235L27.5244 9.92235C28.5142 10.504 29.1614 11.6285 29.1614 12.8305V24.2693C29.1614 25.4713 28.5142 26.5958 27.5244 27.1387L17.8166 32.8774C16.7887 33.4979 15.5324 33.4979 14.5426 32.8774L4.83485 27.1387C3.84504 26.557 3.19785 25.4326 3.19785 24.2305V12.8305C3.19785 11.6285 3.84504 10.504 4.83485 9.92235L14.5426 4.22235C15.0375 3.95092 15.6466 3.79582 16.1796 3.79582ZM14.4668 18.2634C14.4668 17.9532 14.581 17.6817 14.8094 17.4491C14.9617 17.294 15.1521 17.1389 15.4185 16.9838L20.2915 14.6185C21.0529 14.2307 21.9665 14.5797 22.3092 15.3552C22.4614 15.743 22.4995 16.1695 22.3472 16.5572C22.1949 16.945 21.9285 17.2552 21.5478 17.4491L17.5124 19.3879V26.9879C17.5124 27.8409 16.8271 28.5389 15.9896 28.5389C15.1521 28.5389 14.4668 27.8409 14.4668 26.9879V18.4572V18.2634Z" fill="#F52671"/>
</g>
<defs>
<clipPath id="clip0_882_2279">
<rect width="142" height="38" fill="white" transform="translate(0 0.5)"/>
</clipPath>
</defs>
</svg>

<svg width="142" height="39" fill="none" xmlns="http://www.w3.org/2000/svg"><g clip-path="url(#a)"><path d="M49.871 14.924V.888h2.855l4.188 8.414L61.102.888h2.855v14.036h-2.475v-9.81l-3.807 7.639h-1.598L52.27 5.114v9.85h-2.4v-.04Zm18.046-1.202c-1.028-1.008-1.523-2.326-1.523-3.916 0-1.59.457-2.792 1.523-3.916 1.028-1.008 2.284-1.513 3.693-1.513 1.409 0 2.741.505 3.693 1.513 1.028 1.008 1.523 2.326 1.523 3.916 0 1.59-.457 2.792-1.523 3.916-1.028 1.008-2.284 1.513-3.693 1.513-1.409 0-2.627-.505-3.693-1.513Zm1.828-5.894c-.571.505-.838 1.202-.838 2.094 0 .892.267 1.59.838 2.094.57.504 1.218.815 1.98.815.76 0 1.408-.31 1.979-.815.571-.504.761-1.202.761-2.094 0-.892-.266-1.59-.761-2.094-.571-.504-1.218-.814-1.98-.814-.837-.116-1.408.194-1.98.814Zm9.782 7.096V4.881h2.741l3.122 5.429 3.122-5.429h2.74v10.043h-2.474V8.526l-2.74 5.002h-1.333l-2.741-5.002v6.437h-2.437v-.039Zm17.096-3.916c.076.62.38 1.008.837 1.396.457.31.952.504 1.6.504.647 0 .951-.116 1.332-.31.381-.194.647-.504.952-.892l2.284.892c-.381.814-1.028 1.512-1.789 1.9-.762.504-1.714.698-2.665.698-1.409 0-2.665-.504-3.617-1.512-.952-1.009-1.409-2.327-1.409-3.917 0-1.59.457-2.792 1.409-3.916.952-1.086 2.094-1.512 3.502-1.512 1.409 0 2.665.504 3.617 1.512s1.409 2.326 1.409 3.8c0 1.473 0 .698-.077 1.086h-7.423v.271h.038Zm4.873-2.21c-.076-.62-.381-1.008-.838-1.396a2.896 2.896 0 0 0-1.599-.504 2.9 2.9 0 0 0-1.599.504c-.456.31-.76.814-.837 1.396h4.873Zm5.137 6.126V4.881h2.474v3.8h4.454v-3.8h2.475v10.043h-2.475v-3.8h-4.454v3.8h-2.474Zm20.141-10.043v2.404h-2.932v7.64h-2.474v-7.6h-2.97V4.92h8.376v-.039ZM49.186 33.149a3.594 3.594 0 0 0 .762-2.21v-7.95h8.908l-.076 13.3h-2.398V25.395h-3.998v5.739c0 1.24-.457 2.287-1.408 3.257-.952.853-2.17 1.357-3.693 1.357h-.571l-.267-1.706h.648c.875 0 1.636-.31 2.093-.892Zm11.307.853V38.5h-2.474v-2.21h-9.1v2.21h-2.474v-4.498h14.048Zm3.577 1.241c-1.028-.97-1.523-2.21-1.523-3.723 0-1.512.457-2.675 1.523-3.722 1.028-.97 2.284-1.435 3.692-1.435 1.409 0 2.741.466 3.693 1.435 1.028.97 1.523 2.21 1.523 3.722 0 1.513-.457 2.676-1.523 3.723-1.028.97-2.284 1.435-3.693 1.435-1.408 0-2.74-.466-3.692-1.435Zm1.713-5.739c-.571.465-.838 1.163-.838 2.016 0 .854.267 1.551.838 2.017.57.465 1.218.775 1.98.775.76 0 1.408-.271 1.979-.775.571-.466.761-1.163.761-2.017 0-.853-.266-1.55-.761-2.016-.457-.465-1.218-.775-1.98-.775-.761 0-1.408.31-1.98.775Zm12.927.088c-.456.465-.76 1.163-.76 2.016s.266 1.551.76 2.017a2.679 2.679 0 0 0 1.904.775c.761 0 1.028-.077 1.523-.388.457-.271.761-.659 1.028-1.163l2.284 1.047c-.457.853-1.028 1.551-1.904 2.094-.837.465-1.789.776-2.855.776s-2.665-.466-3.616-1.435c-1.028-.97-1.523-2.21-1.523-3.723 0-1.512.457-2.675 1.523-3.722 1.028-.97 2.17-1.435 3.616-1.435 1.447 0 1.98.272 2.855.776a4.569 4.569 0 0 1 1.904 2.094l-2.284 1.046c-.19-.465-.571-.969-1.028-1.24-.457-.272-.952-.466-1.523-.466-.761.155-1.447.466-1.903.931Zm16.846-2.763v2.287h-2.931v7.29H90.15v-7.29h-2.93V26.83h8.337Zm7.879 5.545-2.094.271c-.837.078-1.218.388-1.218.853 0 .465.076.465.381.66.19.193.571.193.951.193.572 0 1.143-.194 1.523-.465.381-.272.571-.776.571-1.241h.647c0 1.163-.266 2.016-.951 2.792a3.153 3.153 0 0 1-2.475 1.163c-.951 0-1.599-.271-2.094-.775-.57-.582-.837-1.241-.837-2.017 0-.775.266-1.55.837-2.016a4.438 4.438 0 0 1 2.285-.97l2.664-.27v-.078c0-.388-.19-.66-.456-.97-.267-.271-.762-.388-1.219-.388-.456 0-.761.078-1.142.388-.38.272-.571.465-.647.853l-2.36-.775a3.514 3.514 0 0 1 1.523-1.9c.761-.465 1.598-.776 2.474-.776.876 0 2.094.388 2.931 1.047.838.66 1.219 1.551 1.219 2.482v6.204h-2.475v-4.265h-.038Zm11.537 4.032h-6.167V26.83h5.977c.951 0 1.713.271 2.36.775.647.465.952 1.163.952 1.823 0 .659-.076.775-.381 1.163-.19.388-.571.582-.952.775.457.194.762.582 1.028.97.267.387.381.853.381 1.434 0 .582-.267 1.358-.952 1.9-.419.427-1.294.737-2.246.737Zm-.381-7.483h-3.236v1.628h3.427c.266 0 .456-.077.647-.194.19-.194.266-.271.266-.465a.984.984 0 0 0-.266-.66c-.267-.193-.533-.31-.838-.31Zm.191 3.528h-3.427v1.706h3.503c.266 0 .571-.077.761-.271.191-.194.267-.388.267-.582 0-.194-.076-.465-.267-.582-.266-.155-.533-.27-.837-.27Zm6.089 3.955V26.83h2.475v3.528h.456l3.046-3.528h3.122l-4.074 4.769 4.074 4.77h-3.122l-3.046-3.452h-.456v3.451h-2.475v.04Zm21.131 0h-2.475v-6.514l-4.187 6.398h-2.856v-9.578h2.475v6.204l4.188-6.204h2.855v9.694Z" fill="#2A179C"/><path fill-rule="evenodd" clip-rule="evenodd" d="m29.123 7.092-9.707-5.7c-1.98-1.164-4.455-1.164-6.472 0l-9.708 5.7C1.218 8.294 0 10.465 0 12.83v11.438c0 2.327 1.218 4.537 3.236 5.74l9.708 5.7c.913.542 2.055.852 3.236.852 1.18 0 2.322-.31 3.236-.853l9.707-5.7c1.98-1.163 3.236-3.373 3.236-5.739V12.831c0-2.366-1.218-4.537-3.236-5.74ZM16.18 3.796c.533 0 1.142.155 1.637.426l9.707 5.7c.99.582 1.637 1.707 1.637 2.909v11.438c0 1.202-.647 2.327-1.637 2.87l-9.707 5.738c-1.028.62-2.285.62-3.274 0L4.835 27.14c-.99-.582-1.637-1.706-1.637-2.909v-11.4c0-1.201.647-2.326 1.637-2.908l9.708-5.7a3.554 3.554 0 0 1 1.637-.426Zm-1.713 14.467c0-.31.114-.581.342-.814.153-.155.343-.31.61-.465l4.872-2.366c.762-.387 1.675-.038 2.018.737.152.388.19.814.038 1.202a1.653 1.653 0 0 1-.8.892l-4.035 1.939v7.6c0 .853-.685 1.55-1.522 1.55-.838 0-1.523-.697-1.523-1.55v-8.725Z" fill="#F52671"/></g><defs><clipPath id="a"><path fill="#fff" transform="translate(0 .5)" d="M0 0h142v38H0z"/></clipPath></defs></svg>
